icons/1_Primary/All-Inkl.svg

<svg xmlns="http://www.w3.org/2000/svg" width="1024" height="1024" fill="none">
   <g clip-path="url(#a)">
      <path fill="#FF837D" d="M512 1024c282.77 0 512-229.23 512-512S794.77 0 512 0 0 229.23 0 512s229.23 512 512 512Z"/>
      <path fill="#fff" d="M369.93 319h366l.87.9a852390.62 852390.62 0 0 0-56.64 330.56 11884.36 11884.36 0 0 1 100.37 59.76c-158.053.18-316.11.217-474.17.11-8.73.09-17.65-2.2-24.58-7.66-7.43-5.68-11.7-14.59-13.25-23.66v-14.9c17.47-99.91 34.54-199.92 51.88-299.87 3.88-24 26.15-41.89 49.52-45.24Zm70.25 140.51a30786.336 30786.336 0 0 1-17.49 101.36c-1.23 5.34.41 11.83 5.39 14.71 4.08 2.47 9 1.6 13.54 1.77 39.6-.053 79.193-.053 118.78 0 7.68-44.79 15.51-89.56 23.17-134.37-41.28.05-82.55 0-123.83 0-9.3-.14-18.28 7.24-19.56 16.53Z"/>
   </g>
   <defs>
      <clipPath id="a">
         <path fill="#fff" d="M0 0h1024v1024H0z"/>
      </clipPath>
   </defs>
</svg>

<svg width="1024" height="1024" viewBox="0 0 1024 1024" fill="none" xmlns="http://www.w3.org/2000/svg">
<g clip-path="url(#clip0_2_1467)">
<path d="M512 1024C794.77 1024 1024 794.77 1024 512C1024 229.23 794.77 0 512 0C229.23 0 0 229.23 0 512C0 794.77 229.23 1024 512 1024Z" fill="#FF837D"/>
<path d="M369.93 319H735.93L736.8 319.9C717.9 430.073 699.02 540.26 680.16 650.46C713.7 670.207 747.157 690.127 780.53 710.22C622.477 710.4 464.42 710.437 306.36 710.33C297.63 710.42 288.71 708.13 281.78 702.67C274.35 696.99 270.08 688.08 268.53 679.01V664.11C286 564.2 303.07 464.19 320.41 364.24C324.29 340.24 346.56 322.35 369.93 319ZM440.18 459.51C434.407 493.303 428.577 527.09 422.69 560.87C421.46 566.21 423.1 572.7 428.08 575.58C432.16 578.05 437.08 577.18 441.62 577.35C481.22 577.297 520.813 577.297 560.4 577.35C568.08 532.56 575.91 487.79 583.57 442.98C542.29 443.03 501.02 442.98 459.74 442.98C450.44 442.84 441.46 450.22 440.18 459.51Z" fill="white"/>
</g>
<defs>
<clipPath id="clip0_2_1467">
<rect width="1024" height="1024" fill="white"/>
</clipPath>
</defs>
</svg>
